X:1
T:Fel, fel, cserkészpajtás
C:Hungarian song
Z:Public Domain
L:1/8
M:4/4
K:C
V:1 treble nm="Voice"
%%MIDI program 52
V:1
 G2 G2 GECE | A2 A2 A^GAB | c F3 E D3 | C4 C2 z2!fine! :| c3 c B2 c2 | d4 c2 z2 | B2 A2 ^G2 A2 | %7
w: Fel, fel, cser- kész- paj- tás,|fel, fel, cser- kész- paj- tás,|fel a ma- gas|hegy- re,|Jó a cser- kész|dol- ga,|nin- csen sem- mi|
 F4 D2 z2!D.C.! |] %8
w: gond- ja,-|

